X: 1
T: Phil the Fluther's Ball v.1
P: piffero primo a0634
C: Percy French
O: arr JJ McDonagh
%R: hornpipe, shottish
F: http://ancients.sudburymuster.org/mus/sng/pdf/flutherC0.pdf
Z: 2020 John Chambers <jc:trillian.mit.edu>
M: 2/4
L: 1/16
K: D
F>E |\
.D2D2 .d2d>c | B>AB>c .d2d2 |\
(3DDD D>D d>cd>B | A>BA>F E>GF>E |\
.D2D2 .d>dc2 | B>AB>c d2d>e |
f>de>c d>BA>A | B>dc>e d2 :|\
d>e |\
.f2f2 .e2e2 | d>ed>B A>FD2 |\
(3fff (3fff (3eee (3eee | d>cB>e A2d>e |
.f2f2 .e2e2 | d>ed>B A>FD>F |\
A>BA>A d>dd>B | A>BA>F TE2F>E |\
.D2D2 .d2d>c | B>AB>c .d2d2 |
(3DDD D>D | d>cd>B |\
A>BA>F E>GF>E | .D2D2 .d2d>c |\
B>AB>c d2d>e f>de>c d>BA>A | B>dc>e d>D-D2 |]


